X:1
T:Golden Cord
M:4/4
L:1/8
Q:1/4=60
K:C
% Strings
V:1 name=Strings clef=treble
%%MIDI program 1 49 % Strings
|: A2B2c2e2 | d2c2B2A2 :|
% Viola
V:2 name=Viola clef=alto
%%MIDI program 2 41 % Viola
|: E2F2G2A2 | B2A2G2F2 :|
% Piano treble
V:3 name=Piano clef=treble
%%MIDI program 3 0 % Piano
|: D2E2^C2E2 | D2D2E2D2 :|
% Piano bass
V:4 name=Piano clef=bass
%%MIDI program 4 0 % Piano
|: G,2A,2B,2C2 | D2^C2B,2A,2 :|